X:34
T:Rough and Smooth THO1.034
M:2/4
L:1/8
Z:vmp. Peter Dunk 2012.from a transcription by Fynn Titford-Mock 2006
B:Thompson's Compleat Collection of 200 Favourite Country Dances Vol.I,1758
Q:1/4=140
K:G
d|e>de>f|g>GG>d|e>de>f|g>GG>g|f>ed>c|(3BAG (3G-GB|B/G/B/d/ cB|{B}A3:|
|:g|f>de>f|g3 =f|e>cG>B|c3 g|f>dA>^c|d3 =c|(3Bdg (3agf|g3:|

